icons/squirrel-16.svg

<svg width="16" height="16" viewBox="0 0 16 16" fill="none" xmlns="http://www.w3.org/2000/svg">
<rect width="16" height="16" transform="matrix(-1 0 0 1 16 0)" fill="white"/>
<path fill-rule="evenodd" clip-rule="evenodd" d="M3.49982 0.75C3.49982 0.335786 3.8356 0 4.24982 0C4.66403 0 4.99982 0.335786 4.99982 0.75V1.74619C5.90123 2.9027 6.79378 3.64943 7.66266 4.37637C7.74302 4.4436 7.82318 4.51067 7.90312 4.57787C7.86714 3.88405 7.9582 3.15617 8.32905 2.41448C9.09968 0.87322 10.7948 -0.0446868 12.623 0.260105C13.5308 0.411455 14.3976 0.876651 14.9972 1.67226C15.601 2.47349 15.8879 3.54811 15.7452 4.83269C15.7149 5.1055 15.5379 5.33997 15.2839 5.44397C15.0314 5.54735 14.7429 5.50542 14.5303 5.3348L14.5292 5.33399C14.5265 5.33189 14.5203 5.32717 14.511 5.32035C14.4921 5.30662 14.461 5.28493 14.4201 5.25929C14.3362 5.20679 14.2212 5.14418 14.0916 5.09688C13.8234 4.99902 13.6024 4.99963 13.4159 5.12393C13.2284 5.24896 13.1537 5.38599 13.1238 5.57748C13.0874 5.81082 13.1205 6.13141 13.2287 6.57449C13.3011 6.87084 13.3917 7.16705 13.4909 7.49146L13.4909 7.49148C13.542 7.65851 13.5954 7.83301 13.6497 8.01886C13.8011 8.53657 13.9493 9.11091 13.9973 9.68764C14.1419 11.4237 13.5144 12.794 12.3904 13.707C11.2963 14.5959 9.79901 14.9999 8.24984 14.9999H6.01714C6.00524 15.0002 5.99331 15.0002 5.98138 14.9999H2.74984C2.33563 14.9999 1.99984 14.6641 1.99984 14.2499C1.99984 13.8357 2.33563 13.4999 2.74984 13.4999H4.12538C3.88737 13.1414 3.69128 12.7393 3.56251 12.3086C3.36952 11.663 3.3294 10.9577 3.51207 10.2456C2.90232 10.2976 2.21668 10.2245 1.48793 9.95272C1.09983 9.80799 0.90254 9.37603 1.04728 8.98793C1.19201 8.59983 1.62397 8.40254 2.01207 8.54728C3.36966 9.05357 4.38867 8.54078 4.71032 8.22887C4.71338 8.22581 4.71644 8.22274 4.71951 8.21967C4.86597 8.0732 5.05794 7.99998 5.24991 8C5.44188 7.99998 5.63386 8.0732 5.78033 8.21967C6.07322 8.51256 6.07322 8.98744 5.78033 9.28033C5.77597 9.28469 5.77158 9.28904 5.76715 9.2934C4.8553 10.2131 4.77515 11.1279 4.99966 11.8789C5.22069 12.6182 5.74463 13.2161 6.1953 13.4999H8.24984C9.56461 13.4999 10.6923 13.1539 11.4447 12.5428C12.1672 11.9558 12.6078 11.0761 12.5025 9.81214C12.4675 9.39232 12.3554 8.93714 12.21 8.43987C12.1675 8.29454 12.1207 8.14115 12.0727 7.98406C11.9661 7.63513 11.854 7.26797 11.7716 6.93047C11.6506 6.43519 11.5585 5.87949 11.6418 5.34612C11.7316 4.77091 12.0214 4.25083 12.5839 3.87586C13.1591 3.4924 13.7552 3.48058 14.2268 3.57917C14.1486 3.16272 13.9928 2.83179 13.7993 2.57503C13.4562 2.11981 12.948 1.835 12.3763 1.73968C11.2048 1.54438 10.1501 2.12657 9.67069 3.0853C9.21055 4.00558 9.40139 4.85876 9.68945 6.1466L9.73197 6.337C9.73561 6.35339 9.73869 6.36977 9.74122 6.38613C10.0892 6.83001 10.4081 7.33581 10.6826 7.93965C10.854 8.31673 10.6873 8.76137 10.3102 8.93277C9.93308 9.10418 9.48844 8.93744 9.31704 8.56035C8.76381 7.34324 7.99675 6.61934 7.01616 5.79197C6.91308 5.70499 6.80764 5.61689 6.70009 5.52704L6.69995 5.52692C5.88542 4.84639 4.95045 4.06523 4.00819 2.90847C3.67216 3.09655 3.30616 3.39887 2.98528 3.78895C2.57894 4.28293 2.32225 4.8235 2.263 5.29588C2.37926 5.41805 2.56838 5.5068 2.85425 5.53483C3.24154 5.5728 3.65038 5.47505 3.88558 5.34438C4.24767 5.14322 4.70428 5.27368 4.90544 5.63577C5.10659 5.99786 4.97614 6.45446 4.61405 6.65562C4.09926 6.94161 3.38309 7.09387 2.70789 7.02767C2.02587 6.96081 1.23497 6.64736 0.828997 5.83541L0.749817 5.67705V5.5C0.749817 4.51608 1.2306 3.5609 1.82685 2.83605C2.28665 2.27707 2.87589 1.781 3.49982 1.48315V0.75Z" fill="black"/>
</svg>

<svg xmlns="http://www.w3.org/2000/svg" width="16" height="16" viewBox="0 0 16 16"><path d="M16 0H0v16h16z"/><path fill-rule="evenodd" d="M3.5.75a.75.75 0 111.5 0v.996c.9 1.157 1.794 1.904 2.663 2.63l.24.202c-.036-.694.055-1.422.426-2.164C9.1.874 10.795-.045 12.623.26c.908.151 1.775.617 2.374 1.412.604.801.89 1.876.748 3.16a.75.75 0 01-1.215.503v-.001a1.79 1.79 0 00-.438-.237c-.269-.098-.49-.097-.676.027a.607.607 0 00-.292.453c-.037.234-.004.554.105.997.072.297.163.593.262.917l.159.528c.151.518.3 1.092.347 1.669.145 1.736-.483 3.106-1.607 4.019C11.296 14.596 9.8 15 8.25 15H6.017a.71.71 0 01-.036 0H2.75a.75.75 0 010-1.5h1.375a4.488 4.488 0 01-.562-1.191 3.833 3.833 0 01-.05-2.063 4.636 4.636 0 01-2.025-.293.75.75 0 11.524-1.406c1.358.507 2.377-.006 2.698-.318l.01-.01a.748.748 0 011.06 0 .75.75 0 01-.013 1.074c-.912.92-.992 1.835-.767 2.586.22.74.745 1.337 1.195 1.62H8.25c1.315 0 2.442-.345 3.195-.956.722-.587 1.163-1.467 1.057-2.73-.035-.42-.147-.876-.292-1.373l-.137-.456a19.886 19.886 0 01-.301-1.054c-.121-.495-.213-1.05-.13-1.584a2.1 2.1 0 01.942-1.47c.575-.384 1.171-.395 1.643-.297a2.375 2.375 0 00-.428-1.004c-.343-.455-.851-.74-1.423-.835-1.171-.196-2.226.387-2.705 1.345-.46.92-.27 1.774.018 3.062l.043.19a.768.768 0 01.01.05c.347.443.666.949.94 1.553a.75.75 0 11-1.365.62c-.553-1.217-1.32-1.94-2.3-2.768a84.37 84.37 0 00-.317-.265c-.815-.68-1.75-1.462-2.692-2.619a3.74 3.74 0 00-1.023.88c-.406.495-.663 1.036-.722 1.508.116.122.305.21.591.239.388.038.796-.06 1.032-.19a.75.75 0 01.728 1.31c-.515.287-1.23.439-1.906.373-.682-.067-1.473-.38-1.879-1.193l-.08-.158V5.5c0-.984.482-1.94 1.078-2.664.46-.559 1.049-1.055 1.673-1.353V.75z"/></svg>
